X:10
T:Scottish a Virmoux
I:last changed 14/2/2016
F:http://www.campin.me.uk/Music/Edinbal.abc
M:C|
L:1/8
Q:1/2=80
P:AABB
K:D
P:A
FAGF A3F|GFGA B2A2|AdAF G2FE|[1 FAFD E4   :|\
                             [2 DAGF D4   ||
P:B
d2A2 d3c|BABc dedB|A2D2 A2GF|[1 EFGA BABc:||\
                             [2 EFGA D4   |]


